dist/svgs/org-who.svg

<svg xmlns="http://www.w3.org/2000/svg" viewBox="0 0 512 512"><path d="M250 0q25 0 47 9.5t38.5 26 26 38.5 9.5 47v48q0 27-11.5 51.5T327 262q-13 10-13 27v16q0 6 6 8 17 7 12 24-3 8-10 11.5t-15 .5q-14-5-22.5-17t-8.5-27v-16q0-35 27-57 30-24 30-63v-48q0-35-24-59t-59-24q-34 0-58.5 24T167 121v48q0 39 31 64 26 21 26 55v17q0 15-8.5 27T193 349L77 390q-11 5-16 14l-19 91q-4 16-19 16-1 0-1.5-.5T19 510q-8-2-12.5-8T4 488l20-94q0-2 .5-3t.5-2q13-26 39-35l116-41q5-2 5-8v-17q0-15-12-26-21-17-32.5-41.5T129 169v-48q0-25 9.5-47t26-38.5 38.5-26T250 0zm191 280q28 0 47.5 20t19.5 48q0 20-11 36.5T468 409q-8 5-8 12v8q0 8-5.5 14t-13.5 6-14-6-6-14v-8q0-15 8.5-27.5T452 374q18-7 18-26 0-12-8.5-20.5T441 319q-18 0-26 15-4 8-11.5 10t-14.5-2-9.5-11 1.5-15q9-17 24.5-26.5T441 280zm0 186q9 0 15.5 6.5T463 488q0 10-6.5 16.5T441 511q-10 0-16.5-6.5T418 488q0-9 6.5-15.5T441 466z"/></svg>

<?xml version="1.0" encoding="UTF-8" standalone="no"?><svg   xmlns:svg="http://www.w3.org/2000/svg"   xmlns="http://www.w3.org/2000/svg"   version="1.1"   width="512"   height="512"   viewBox="0 0 512 512">  <path     d="M250 0Q275 0 297 9.5T335.5 35.5T361.5 74T371 121V169Q371 196 359.5 220.5T327 262Q314 272 314 289V305Q314 311 320 313Q337 320 332 337Q329 345 322 348.5T307 349Q293 344 284.5 332T276 305V289Q276 254 303 232Q333 208 333 169V121Q333 86 309 62T250 38Q216 38 191.5 62T167 121V169Q167 208 198 233Q224 254 224 288V305Q224 320 215.5 332T193 349L77 390Q66 395 61 404L42 495Q38 511 23 511Q22 511 21.5 510.5T19 510Q11 508 6.5 502T4 488L24 394Q24 392 24.5 391T25 389Q38 363 64 354L180 313Q185 311 185 305V288Q185 273 173 262Q152 245 140.5 220.5T129 169V121Q129 96 138.5 74T164.5 35.5T203 9.5T250 0zM441 280Q469 280 488.5 300T508 348Q508 368 497 384.5T468 409Q460 414 460 421V429Q460 437 454.5 443T441 449T427 443T421 429V421Q421 406 429.5 393.5T452 374Q470 367 470 348Q470 336 461.5 327.5T441 319Q423 319 415 334Q411 342 403.5 344T389 342T379.5 331T381 316Q390 299 405.5 289.5T441 280zM441 466Q450 466 456.5 472.5T463 488Q463 498 456.5 504.5T441 511Q431 511 424.5 504.5T418 488Q418 479 424.5 472.5T441 466z"     id="org-who" /></svg>
